src/containers/Contact/linkedin.svg

<svg viewBox="0 0 113 113" xmlns="http://www.w3.org/2000/svg"><path d="m89.616 61.611v23.128h-13.409v-21.578c0-5.418-1.936-9.118-6.791-9.118-3.705 0-5.906 2.491-6.878 4.903-.353.862-.444 2.059-.444 3.268v22.524h-13.41s.18-36.546 0-40.329h13.411v5.715c-.027.045-.065.089-.089.132h.089v-.132c1.782-2.742 4.96-6.662 12.085-6.662 8.822 0 15.436 5.764 15.436 18.149zm-54.96-36.642c-4.587 0-7.588 3.011-7.588 6.967 0 3.872 2.914 6.97 7.412 6.97h.087c4.677 0 7.585-3.098 7.585-6.97-.089-3.956-2.908-6.967-7.496-6.967zm-6.791 59.77h13.405v-40.33h-13.405z" fill="#007ab9"/></svg>

<svg viewBox="0 0 113 113" xmlns="http://www.w3.org/2000/svg" xmlns:xlink="http://www.w3.org/1999/xlink"> <g id="Page-1" stroke="none" stroke-width="1" fill="none" fill-rule="evenodd"> <g id="linkedin" transform="translate(0.000000, -1.000000)" fill-rule="nonzero"> <circle id="Oval" fill="#007AB9" cx="56.098" cy="57.097" r="56.098"></circle> <path d="M89.616,61.611 L89.616,84.739 L76.207,84.739 L76.207,63.161 C76.207,57.743 74.271,54.043 69.416,54.043 C65.711,54.043 63.51,56.534 62.538,58.946 C62.185,59.808 62.094,61.005 62.094,62.214 L62.094,84.738 L48.684,84.738 C48.684,84.738 48.864,48.192 48.684,44.409 L62.095,44.409 L62.095,50.124 C62.068,50.169 62.03,50.213 62.006,50.256 L62.095,50.256 L62.095,50.124 C63.877,47.382 67.055,43.462 74.18,43.462 C83.002,43.462 89.616,49.226 89.616,61.611 L89.616,61.611 Z M34.656,24.969 C30.069,24.969 27.068,27.98 27.068,31.936 C27.068,35.808 29.982,38.906 34.48,38.906 L34.567,38.906 C39.244,38.906 42.152,35.808 42.152,31.936 C42.063,27.98 39.244,24.969 34.656,24.969 Z M27.865,84.739 L41.27,84.739 L41.27,44.409 L27.865,44.409 L27.865,84.739 Z" id="Shape" fill="#F1F2F2"></path> </g> </g> </svg>
